svg/media/live_photo_fill.svg

<?xml version="1.0" encoding="UTF-8"?>
<svg width="24px" height="24px" viewBox="0 0 24 24" version="1.1" xmlns="http://www.w3.org/2000/svg" xmlns:xlink="http://www.w3.org/1999/xlink">
    <title>live_photo_fill</title>
    <g id="页面-1" stroke="none" stroke-width="1" fill="none" fill-rule="evenodd">
        <g id="Media" transform="translate(-864.000000, -144.000000)" fill-rule="nonzero">
            <g id="live_photo_fill" transform="translate(864.000000, 144.000000)">
                 <path d="M24,0 L24,24 L0,24 L0,0 L24,0 Z M12.5934901,23.257841 L12.5819402,23.2595131 L12.5108777,23.2950439 L12.4918791,23.2987469 L12.4918791,23.2987469 L12.4767152,23.2950439 L12.4056548,23.2595131 C12.3958229,23.2563662 12.3870493,23.2590235 12.3821421,23.2649074 L12.3780323,23.275831 L12.360941,23.7031097 L12.3658947,23.7234994 L12.3769048,23.7357139 L12.4804777,23.8096931 L12.4953491,23.8136134 L12.4953491,23.8136134 L12.5071152,23.8096931 L12.6106902,23.7357139 L12.6232938,23.7196733 L12.6232938,23.7196733 L12.6266527,23.7031097 L12.609561,23.275831 C12.6075724,23.2657013 12.6010112,23.2592993 12.5934901,23.257841 L12.5934901,23.257841 Z M12.8583906,23.1452862 L12.8445485,23.1473072 L12.6598443,23.2396597 L12.6498822,23.2499052 L12.6498822,23.2499052 L12.6471943,23.2611114 L12.6650943,23.6906389 L12.6699349,23.7034178 L12.6699349,23.7034178 L12.678386,23.7104931 L12.8793402,23.8032389 C12.8914285,23.8068999 12.9022333,23.8029875 12.9078286,23.7952264 L12.9118235,23.7811639 L12.8776777,23.1665331 C12.8752882,23.1545897 12.8674102,23.1470016 12.8583906,23.1452862 L12.8583906,23.1452862 Z M12.1430473,23.1473072 C12.1332178,23.1423925 12.1221763,23.1452606 12.1156365,23.1525954 L12.1099173,23.1665331 L12.0757714,23.7811639 C12.0751323,23.7926639 12.0828099,23.8018602 12.0926481,23.8045676 L12.108256,23.8032389 L12.3092106,23.7104931 L12.3186497,23.7024347 L12.3186497,23.7024347 L12.3225043,23.6906389 L12.340401,23.2611114 L12.337245,23.2485176 L12.337245,23.2485176 L12.3277531,23.2396597 L12.1430473,23.1473072 Z" id="MingCute" fill-rule="nonzero"></path>
                <path d="M12.1914,19.9978 C12.7436,19.9848 13.2016,20.4219 13.2146,20.9741 C13.2275,21.5262 12.7904,21.9843 12.2383,21.9972 L12,22 L12,22 L11.7617,21.9972 L11.7617,21.9972 C11.2096,21.9843 10.7725,21.5262 10.7854,20.9741 C10.7984,20.4219 11.2564,19.9848 11.8086,19.9978 L12,20 L12,20 L12.1914,19.9978 L12.1914,19.9978 Z M16.1635,18.8327 C16.6348,18.5448 17.2503,18.6935 17.5381,19.1649 C17.826,19.6362 17.6773,20.2516 17.206,20.5395 C17.0708,20.6221 16.9334,20.7016 16.794,20.7779 C16.3095,21.043 15.7018,20.8652 15.4367,20.3807 C15.1716,19.8962 15.3494,19.2885 15.8339,19.0234 C15.9454,18.9624 16.0553,18.8988 16.1635,18.8327 Z M6.46185,19.1649 C6.74974,18.6935 7.3652,18.5448 7.83651,18.8327 C7.94472,18.8988 8.0546,18.9624 8.16608,19.0234 C8.65058,19.2885 8.82843,19.8962 8.56332,20.3807 C8.29821,20.8652 7.69054,21.043 7.20604,20.7779 C7.06663,20.7016 6.92924,20.6221 6.79398,20.5395 C6.32267,20.2516 6.17397,19.6362 6.46185,19.1649 Z M12,6 C15.3137,6 18,8.68629 18,12 C18,15.3137 15.3137,18 12,18 C8.68629,18 6,15.3137 6,12 C6,8.68629 8.68629,6 12,6 Z M19.0234,15.8339 C19.2885,15.3494 19.8962,15.1716 20.3807,15.4367 C20.8652,15.7018 21.043,16.3095 20.7779,16.794 C20.7016,16.9334 20.6221,17.0708 20.5395,17.206 C20.2516,17.6773 19.6362,17.826 19.1649,17.5381 C18.6935,17.2503 18.5448,16.6348 18.8327,16.1635 C18.8988,16.0553 18.9624,15.9454 19.0234,15.8339 Z M3.61932,15.4367 C4.10382,15.1716 4.71149,15.3494 4.9766,15.8339 C5.0376,15.9454 5.10118,16.0553 5.16728,16.1635 C5.45516,16.6348 5.30646,17.2503 4.83514,17.5381 C4.36383,17.826 3.74837,17.6773 3.46048,17.206 C3.37787,17.0708 3.29837,16.9334 3.22208,16.794 C2.95697,16.3095 3.13482,15.7018 3.61932,15.4367 Z M12,10 C10.8954,10 10,10.8954 10,12 C10,13.1046 10.8954,14 12,14 C13.1046,14 14,13.1046 14,12 C14,10.8954 13.1046,10 12,10 Z M3.02594,10.7854 C3.57807,10.7984 4.01518,11.2564 4.00224,11.8086 L4.00056125,12.09585 L4.00224,12.1914 C4.01518,12.7436 3.57807,13.2016 3.02594,13.2146 C2.4738,13.2275 2.01572,12.7904 2.00279,12.2383 L2.0006975,11.8807 L2.00279,11.7617 C2.01572,11.2096 2.4738,10.7725 3.02594,10.7854 Z M20.9741,10.7854 C21.5262,10.7725 21.9843,11.2096 21.9972,11.7617 L22,12 L22,12 L21.9972,12.2383 C21.9843,12.7904 21.5262,13.2275 20.9741,13.2146 C20.4219,13.2016 19.9848,12.7436 19.9978,12.1914 L20,12 L20,12 L19.9978,11.8086 C19.9848,11.2564 20.4219,10.7984 20.9741,10.7854 Z M19.1649,6.46185 C19.6362,6.17397 20.2516,6.32267 20.5395,6.79398 C20.6221,6.92924 20.7016,7.06663 20.7779,7.20604 C21.043,7.69054 20.8652,8.29821 20.3807,8.56332 C19.8962,8.82843 19.2885,8.65058 19.0234,8.16608 C18.9624,8.0546 18.8988,7.94472 18.8327,7.83651 C18.5448,7.3652 18.6935,6.74974 19.1649,6.46185 Z M3.46048,6.79398 C3.74837,6.32267 4.36383,6.17397 4.83514,6.46185 C5.30646,6.74974 5.45516,7.3652 5.16727,7.83651 C5.10118,7.94472 5.0376,8.0546 4.9766,8.16608 C4.71149,8.65058 4.10382,8.82843 3.61932,8.56332 C3.13482,8.29821 2.95697,7.69054 3.22208,7.20604 C3.29837,7.06663 3.37787,6.92924 3.46048,6.79398 Z M15.4367,3.61932 C15.7018,3.13482 16.3095,2.95697 16.794,3.22208 C16.9334,3.29837 17.0708,3.37787 17.206,3.46048 C17.6773,3.74837 17.826,4.36383 17.5381,4.83514 C17.2503,5.30646 16.6348,5.45516 16.1635,5.16727 C16.0553,5.10118 15.9454,5.0376 15.8339,4.9766 C15.3494,4.71149 15.1716,4.10382 15.4367,3.61932 Z M7.20604,3.22208 C7.69054,2.95697 8.29821,3.13482 8.56332,3.61932 C8.82843,4.10382 8.65058,4.71149 8.16608,4.9766 C8.0546,5.0376 7.94472,5.10118 7.83651,5.16728 C7.3652,5.45516 6.74974,5.30646 6.46185,4.83514 C6.17397,4.36383 6.32267,3.74837 6.79398,3.46048 C6.92924,3.37787 7.06663,3.29837 7.20604,3.22208 Z M12,2 L12.2383,2.00279 C12.7904,2.01572 13.2275,2.4738 13.2146,3.02594 C13.2016,3.57807 12.7436,4.01518 12.1914,4.00224 L12,4 L12,4 L11.8086,4.00224 L11.8086,4.00224 C11.2564,4.01518 10.7984,3.57807 10.7854,3.02594 C10.7725,2.4738 11.2096,2.01572 11.7617,2.00279 L12,2 L12,2 Z" id="形状" fill="#09244B"></path>
            </g>
        </g>
    </g>
</svg>

<svg xmlns="http://www.w3.org/2000/svg" width="24" height="24"><g fill="none" fill-rule="nonzero"><path d="M24 0v24H0V0h24ZM12.593 23.258l-.011.002-.071.035-.02.004-.014-.004-.071-.035c-.01-.004-.019-.001-.024.005l-.004.01-.017.428.005.02.01.013.104.074.015.004.012-.004.104-.074.012-.016.004-.017-.017-.427c-.002-.01-.009-.017-.017-.018Zm.265-.113-.013.002-.185.093-.01.01-.003.011.018.43.005.012.008.007.201.093c.012.004.023 0 .029-.008l.004-.014-.034-.614c-.003-.012-.01-.02-.02-.022Zm-.715.002a.023.023 0 0 0-.027.006l-.006.014-.034.614c0 .012.007.02.017.024l.015-.002.201-.093.01-.008.004-.011.017-.43-.003-.012-.01-.01-.184-.092Z"/><path fill="#09244B" d="M12.191 19.998a1 1 0 1 1 .047 2L12 22l-.238-.003a1 1 0 1 1 .047-2L12 20l.191-.002Zm3.972-1.165a1 1 0 1 1 1.043 1.707 9.996 9.996 0 0 1-.412.238 1 1 0 0 1-.96-1.755c.111-.06.221-.124.33-.19Zm-9.701.332a1 1 0 0 1 1.375-.332c.108.066.218.13.33.19a1 1 0 0 1-.961 1.755c-.14-.076-.277-.156-.412-.238a1 1 0 0 1-.332-1.375ZM12 6a6 6 0 1 1 0 12 6 6 0 0 1 0-12Zm7.023 9.834a1 1 0 0 1 1.755.96c-.076.14-.156.277-.238.412a1 1 0 0 1-1.707-1.043c.066-.108.13-.218.19-.33ZM3.62 15.437a1 1 0 0 1 1.358.397c.06.111.124.221.19.33a1 1 0 1 1-1.707 1.042 9.974 9.974 0 0 1-.238-.412 1 1 0 0 1 .397-1.357ZM12 10a2 2 0 1 0 0 4 2 2 0 0 0 0-4Zm-8.974.785a1 1 0 0 1 .976 1.024l-.001.287.001.095a1 1 0 0 1-2 .047l-.001-.357.002-.12a1 1 0 0 1 1.023-.976Zm17.948 0a1 1 0 0 1 1.023.977L22 12l-.003.238a1 1 0 1 1-2-.047L20 12l-.002-.191a1 1 0 0 1 .976-1.024Zm-1.81-4.323a1 1 0 0 1 1.375.332c.083.135.163.273.239.412a1 1 0 1 1-1.755.96 7.987 7.987 0 0 0-.19-.33 1 1 0 0 1 .332-1.374ZM3.46 6.794a1 1 0 0 1 1.707 1.043c-.066.108-.13.218-.19.33a1 1 0 1 1-1.755-.961c.076-.14.156-.277.238-.412Zm11.977-3.175a1 1 0 0 1 1.357-.397c.14.076.277.156.412.238a1 1 0 0 1-1.043 1.707 7.979 7.979 0 0 0-.33-.19 1 1 0 0 1-.396-1.358Zm-8.231-.397a1 1 0 1 1 .96 1.755 7.986 7.986 0 0 0-.33.19A1 1 0 0 1 6.795 3.46c.135-.082.273-.162.412-.238ZM12 2l.238.003a1 1 0 0 1-.047 2L12 4l-.191.002a1 1 0 0 1-.047-2L12 2Z"/></g></svg>
